dist/image/hero/paws.svg

<svg width="31" height="31" viewBox="0 0 31 31" fill="none" xmlns="http://www.w3.org/2000/svg">
<g clip-path="url(#clip0)">
<path d="M13.338 26.6709C12.6777 26.1939 12.2919 25.7107 12.1571 25.193C11.6572 23.2602 10.0427 21.8494 8.23129 21.8494C6.42008 21.8494 4.74511 23.2602 4.24513 25.1939C4.11031 25.7098 3.72456 26.1939 3.06399 26.6717C2.25985 27.2542 1.89208 28.1551 2.10399 29.0238C2.35871 30.0689 3.51927 30.9984 5.10674 30.9984C5.77796 30.9984 6.41535 30.8262 6.94916 30.501C7.30369 30.2837 7.78617 30.1685 8.22963 30.1685C8.67285 30.1685 9.09384 30.2829 9.4531 30.5001C9.98856 30.8272 10.6224 31 11.2875 31C12.874 31 14.0417 30.0753 14.2983 29.024C14.5102 28.1551 14.1415 27.2532 13.338 26.6709Z" fill="#FF8A00"/>
<path d="M3.63136 21.8493C3.63136 20.7988 2.80074 19.1257 1.81567 19.1257C0.830833 19.1257 -3.05176e-05 20.7988 -3.05176e-05 21.8493C-3.05176e-05 22.8503 0.814751 23.665 1.81567 23.665C2.81658 23.665 3.63136 22.8503 3.63136 21.8493Z" fill="#FF8A00"/>
<path d="M14.5863 19.1257C13.6015 19.1257 12.7706 20.7988 12.7706 21.8493C12.7706 22.8503 13.5854 23.665 14.5863 23.665C15.5873 23.665 16.402 22.8503 16.402 21.8493C16.402 20.7988 15.5714 19.1257 14.5863 19.1257Z" fill="#FF8A00"/>
<path d="M9.13923 18.2177C9.13923 19.2188 9.95401 20.0336 10.9549 20.0336C11.9558 20.0336 12.7706 19.2188 12.7706 18.2177C12.7706 17.1671 11.94 15.4943 10.9549 15.4943C9.96986 15.4943 9.13923 17.1671 9.13923 18.2177Z" fill="#FF8A00"/>
<path d="M5.44729 20.0336C6.4482 20.0336 7.26298 19.2188 7.26298 18.2177C7.26298 17.1671 6.43212 15.4943 5.44729 15.4943C4.46222 15.4943 3.63135 17.1671 3.63135 18.2177C3.63135 19.2188 4.44613 20.0336 5.44729 20.0336Z" fill="#FF8A00"/>
<path d="M27.9244 11.1767C27.2641 10.6996 26.8783 10.1559 26.7435 9.63818C26.2435 7.70541 24.5685 6.35516 22.7571 6.35516C20.9459 6.35516 19.3315 7.70541 18.8315 9.63912C18.6967 10.1552 18.3109 10.6996 17.6503 11.1776C16.8462 11.7602 16.4784 12.6608 16.6903 13.5297C16.9451 14.5746 18.1056 15.5041 19.6931 15.5041C20.3643 15.5041 21.0017 15.3322 21.5355 15.0067C21.89 14.7894 22.312 14.6742 22.7554 14.6742C23.1987 14.6742 23.6802 14.7887 24.0395 15.0058C24.5749 15.3329 25.2088 15.506 25.8738 15.506C27.4604 15.506 28.628 14.581 28.8846 13.5297C29.0965 12.6608 28.7278 11.7592 27.9244 11.1767Z" fill="#FF8A00"/>
<path d="M18.218 6.35507C18.218 5.30449 17.3871 3.63141 16.402 3.63141C15.4172 3.63141 14.5863 5.30449 14.5863 6.35507C14.5863 7.35599 15.4011 8.17077 16.402 8.17077C17.4032 8.17077 18.218 7.35599 18.218 6.35507Z" fill="#FF8A00"/>
<path d="M29.1727 3.63141C28.1878 3.63141 27.357 5.30449 27.357 6.35507C27.357 7.35599 28.1718 8.17077 29.1727 8.17077C30.1738 8.17077 30.9886 7.35599 30.9886 6.35507C30.9886 5.30449 30.1577 3.63141 29.1727 3.63141Z" fill="#FF8A00"/>
<path d="M23.7256 2.72366C23.7256 3.72458 24.5404 4.53936 25.5413 4.53936C26.5422 4.53936 27.357 3.72458 27.357 2.72366C27.357 1.67308 26.5264 0 25.5413 0C24.5562 0 23.7256 1.67308 23.7256 2.72366Z" fill="#FF8A00"/>
<path d="M18.2179 2.72366C18.2179 3.72458 19.0327 4.53936 20.0336 4.53936C21.0346 4.53936 21.8493 3.72458 21.8493 2.72366C21.8493 1.67308 21.0185 0 20.0336 0C19.0486 0 18.2179 1.67308 18.2179 2.72366Z" fill="#FF8A00"/>
</g>
<defs>
<clipPath id="clip0">
<rect width="31" height="31" fill="white"/>
</clipPath>
</defs>
</svg>

<svg width="31" height="31" fill="none" xmlns="http://www.w3.org/2000/svg"><g clip-path="url(#clip0)" fill="#FF8A00"><path d="M13.338 26.67c-.66-.476-1.046-.96-1.18-1.477-.5-1.933-2.115-3.344-3.927-3.344-1.81 0-3.486 1.411-3.986 3.345-.135.516-.52 1-1.181 1.478-.804.582-1.172 1.483-.96 2.352.255 1.045 1.415 1.974 3.003 1.974.671 0 1.308-.172 1.842-.497.355-.217.837-.332 1.28-.332.444 0 .865.114 1.224.331.536.327 1.17.5 1.835.5 1.586 0 2.754-.925 3.01-1.976.212-.869-.156-1.77-.96-2.353zM3.631 21.85c0-1.051-.83-2.724-1.815-2.724S0 20.799 0 21.849c0 1.001.815 1.816 1.816 1.816 1 0 1.815-.815 1.815-1.816zM14.586 19.126c-.985 0-1.815 1.673-1.815 2.723 0 1.001.814 1.816 1.815 1.816a1.818 1.818 0 001.816-1.816c0-1.05-.83-2.723-1.816-2.723zM9.14 18.218c0 1 .814 1.816 1.815 1.816 1 0 1.816-.815 1.816-1.816 0-1.05-.831-2.724-1.816-2.724-.985 0-1.816 1.673-1.816 2.724zM5.447 20.034c1.001 0 1.816-.815 1.816-1.816 0-1.05-.83-2.724-1.816-2.724-.985 0-1.816 1.673-1.816 2.724 0 1 .815 1.816 1.816 1.816zM27.924 11.177c-.66-.477-1.046-1.021-1.18-1.539-.5-1.933-2.175-3.283-3.987-3.283-1.811 0-3.426 1.35-3.926 3.284-.134.516-.52 1.06-1.18 1.539-.805.582-1.173 1.483-.96 2.352.254 1.045 1.415 1.974 3.002 1.974.671 0 1.309-.172 1.842-.497a2.33 2.33 0 011.22-.333c.444 0 .925.115 1.285.332.535.327 1.169.5 1.834.5 1.586 0 2.754-.925 3.01-1.976.212-.87-.156-1.77-.96-2.353zM18.218 6.355c0-1.05-.83-2.724-1.816-2.724-.985 0-1.816 1.673-1.816 2.724 0 1.001.815 1.816 1.816 1.816a1.818 1.818 0 001.816-1.816zM29.173 3.631c-.985 0-1.816 1.673-1.816 2.724 0 1.001.815 1.816 1.816 1.816a1.818 1.818 0 001.816-1.816c0-1.05-.831-2.724-1.816-2.724zM23.726 2.724c0 1 .814 1.815 1.815 1.815s1.816-.814 1.816-1.815c0-1.05-.83-2.724-1.816-2.724-.985 0-1.815 1.673-1.815 2.724zM18.218 2.724c0 1 .815 1.815 1.816 1.815a1.818 1.818 0 001.815-1.815c0-1.05-.83-2.724-1.815-2.724s-1.816 1.673-1.816 2.724z"/></g><defs><clipPath id="clip0"><path fill="#fff" d="M0 0h31v31H0z"/></clipPath></defs></svg>
